resources/static/img/icons/laurel.svg

<?xml version="1.0" encoding="UTF-8" standalone="no"?>
<svg
   xmlns:dc="http://purl.org/dc/elements/1.1/"
   xmlns:cc="http://creativecommons.org/ns#"
   xmlns:rdf="http://www.w3.org/1999/02/22-rdf-syntax-ns#"
   xmlns:svg="http://www.w3.org/2000/svg"
   xmlns="http://www.w3.org/2000/svg"
   style="fill:none"
   id="svg11"
   version="1.1"
   viewBox="0 0 46 39.146793"
   height="39.146793"
   width="46">
  <metadata
     id="metadata15">
    <rdf:RDF>
      <cc:Work
         rdf:about="">
        <dc:format>image/svg+xml</dc:format>
        <dc:type
           rdf:resource="http://purl.org/dc/dcmitype/StillImage" />
      </cc:Work>
    </rdf:RDF>
  </metadata>
  <g
     transform="translate(-1.1631716e-7,-3.4390888)"
     id="g4"
     clip-path="url(#clip0)">
    <path
       style="fill:#395781"
       id="path2"
       d="m 45.069,20.1878 c -0.1365,-0.0442 -1.375,-0.4341 -2.7894,-0.4341 -0.8854,0 -1.6621,0.1555 -2.3159,0.4612 -0.013,-0.2261 -0.0291,-0.4514 -0.0512,-0.6763 1.1097,-0.3138 2.6219,-0.9462 3.4818,-2.1735 1.3876,-1.9814 0.7352,-5.0337 0.6566,-5.3752 -0.1555,-0.6713 -0.7925,-1.117 -1.4768,-1.0339 -0.3313,0.0404 -3.1452,0.4335 -4.6126,2.1795 -0.1003,-0.1861 -0.2039,-0.3714 -0.3116,-0.5539 -0.007,-0.0122 -0.0148,-0.0242 -0.0221,-0.0361 0.8728,-0.7538 1.9751,-1.9653 2.2352,-3.44003 C 40.2831,6.72285 38.4023,4.23285 38.1865,3.95665 37.7618,3.41373 36.9961,3.27861 36.411,3.6436 36.1281,3.82048 33.742,5.36713 33.151,7.57146 32.6228,7.17734 32.0722,6.81164 31.4998,6.48035 30.8554,6.10763 30.0311,6.32768 29.6583,6.97168 29.2856,7.61603 29.5057,8.44041 30.15,8.81312 c 1.7446,1.00969 3.2267,2.36398 4.3824,3.94608 0.0572,0.0822 0.1063,0.1495 0.1449,0.2015 1.1227,1.594 1.918,3.4098 2.3198,5.3348 0.0404,0.2495 0.0783,0.424 0.0937,0.4913 4e-4,0.0011 7e-4,0.0021 0.0011,0.0032 0.1361,0.7893 0.207,1.5947 0.207,2.4093 0,1.0981 -0.1249,2.1675 -0.3604,3.195 -0.0853,0.2903 -0.132,0.498 -0.1481,0.5739 -0.0021,0.0105 -0.0032,0.0214 -0.0053,0.0319 -0.5225,1.8937 -1.4259,3.6309 -2.6223,5.1239 -0.0842,0.0997 -0.1516,0.1828 -0.1979,0.2421 -1.2413,1.4825 -2.7764,2.7105 -4.5157,3.5927 -0.2513,0.1116 -0.4191,0.1987 -0.4717,0.2268 -0.0049,0.0024 -0.0091,0.0056 -0.0137,0.008 -1.8162,0.8367 -3.8362,1.3045 -5.9637,1.3045 -2.1275,0 -4.1479,-0.4678 -5.9644,-1.3048 C 17.0311,34.1908 17.0272,34.188 17.0227,34.1856 16.97,34.1575 16.803,34.0708 16.5517,33.9592 14.8124,33.0766 13.2766,31.8486 12.0353,30.3658 11.989,30.3068 11.9216,30.2237 11.8373,30.1243 10.6413,28.631 9.73795,26.8942 9.21503,25.0004 9.21328,24.9896 9.21223,24.979 9.20977,24.9682 9.19363,24.8923 9.14695,24.6846 9.06132,24.3943 8.82618,23.3668 8.70124,22.2974 8.70124,21.1993 c 0,-0.8142 0.07089,-1.6193 0.20706,-2.4086 0,-0.0014 7e-4,-0.0025 0.00106,-0.0039 0.01544,-0.0673 0.05369,-0.2418 0.0937,-0.4917 0.40184,-1.9235 1.19604,-3.7379 2.31764,-5.3313 0.0397,-0.053 0.0906,-0.1228 0.1499,-0.2081 C 12.6259,11.175 14.107,9.82211 15.8508,8.81312 16.4948,8.44076 16.7152,7.61638 16.3425,6.97203 15.9698,6.32768 15.1454,6.10763 14.5011,6.48035 13.9283,6.81164 13.3777,7.17769 12.8495,7.57181 12.2588,5.36713 9.87237,3.82048 9.58915,3.6436 9.00446,3.27861 8.23834,3.41373 7.81368,3.95665 7.59785,4.23285 5.71709,6.72285 6.13718,9.10582 6.39724,10.5805 7.49958,11.792 8.3724,12.5455 8.36538,12.5578 8.35766,12.5694 8.35029,12.5816 8.24255,12.7641 8.13937,12.9494 8.03899,13.1358 6.57131,11.3895 3.75738,10.9964 3.42643,10.956 2.74242,10.8725 2.10474,11.3182 1.94962,11.9903 c -0.07896,0.3415 -0.73103,3.3934 0.65664,5.3748 0.85948,1.2273 2.37173,1.8597 3.48144,2.1738 -0.02211,0.2246 -0.03825,0.4503 -0.05159,0.6763 -0.65347,-0.3057 -1.42978,-0.4611 -2.31558,-0.4611 -1.41399,0 -2.65285,0.3895 -2.789369,0.4337 -0.655579,0.2134 -1.044784,0.8872 -0.901596,1.5614 0.072998,0.3429 0.771744,3.3843 2.866925,4.5943 0.71208,0.411 1.59473,0.6195 2.62267,0.6195 3.5e-4,0 3.5e-4,0 7e-4,0 0.52292,0 1.02162,-0.0534 1.44978,-0.1229 0.07546,0.2138 0.15442,0.4257 0.23795,0.6353 -7e-4,0 -0.00141,0 -0.00211,0 -2.28083,0 -4.39988,1.9158 -4.63397,2.1341 -0.50397,0.4703 -0.57205,1.2452 -0.15723,1.7962 0.21093,0.2797 2.12958,2.7409 4.53992,2.9518 0.11441,0.0102 0.23163,0.0151 0.34885,0.0151 3.5e-4,0 0,0 3.5e-4,0 1.37012,0 2.68127,-0.691 3.5611,-1.2901 0.1586,0.1622 0.3201,0.3211 0.485,0.4766 -2.0727,0.9616 -3.18451,3.586 -3.3098,3.8959 -0.2583,0.6395 0.00807,1.3705 0.61662,1.6944 0.19548,0.1039 1.96218,1.0153 3.79978,1.0153 0,0 0,0 3e-4,0 0.5647,0 1.0904,-0.087 1.5621,-0.2586 1.408,-0.5124 2.41,-1.8095 3.0003,-2.8006 0.4843,0.1828 0.9788,0.3439 1.4828,0.4822 -0.7844,0.7977 -1.5028,1.813 -2.1331,3.0308 -0.3422,0.6609 -0.0835,1.474 0.5777,1.8162 0.6608,0.3422 1.474,0.0839 1.8161,-0.5773 1.2052,-2.3286 2.7497,-3.664 4.2381,-3.664 1.4881,0 3.033,1.3354 4.2378,3.664 0.2397,0.4629 0.7103,0.7282 1.1981,0.7282 0.2085,0 0.4205,-0.0484 0.6184,-0.1509 0.6609,-0.3422 0.9195,-1.1553 0.5773,-1.8165 -0.6303,-1.2178 -1.3487,-2.2331 -2.1331,-3.0305 0.504,-0.1383 0.9985,-0.2994 1.4825,-0.4822 0.5906,0.9907 1.5926,2.2882 3.001,2.8006 0.4713,0.1716 0.997,0.2586 1.562,0.2586 1.8376,0 3.604,-0.9114 3.7994,-1.0156 0.6089,-0.3236 0.875,-1.0546 0.6167,-1.6941 -0.125,-0.3099 -1.2368,-2.9346 -3.3095,-3.8959 0.1649,-0.1558 0.3264,-0.3148 0.485,-0.4766 0.8798,0.5991 2.191,1.2901 3.5611,1.2901 0.1172,0 0.2348,-0.0049 0.3492,-0.0151 2.4104,-0.2109 4.329,-2.6721 4.5396,-2.9518 0.4148,-0.551 0.3471,-1.3259 -0.1572,-1.7962 -0.2338,-0.2183 -2.3532,-2.1341 -4.634,-2.1341 -7e-4,0 -0.0014,0 -0.0021,0 0.0839,-0.2096 0.1628,-0.4215 0.2379,-0.6353 0.4282,0.0695 0.9272,0.1229 1.4505,0.1229 1.0283,0 1.9106,-0.2085 2.623,-0.6195 2.0949,-1.21 2.794,-4.251 2.8666,-4.5939 0.1432,-0.6749 -0.2457,-1.3484 -0.9016,-1.5618 z" />
  </g>
  <defs
     id="defs9">
    <clipPath
       id="clip0">
      <rect
         style="fill:#ffffff"
         y="0"
         x="0"
         id="rect6"
         transform="matrix(1,0,0,-1,0,46)"
         height="46"
         width="46" />
    </clipPath>
  </defs>
</svg>

<svg width="46" height="46" viewBox="0 0 46 46" fill="none" xmlns="http://www.w3.org/2000/svg">
<g clip-path="url(#clip0)">
<path d="M45.069 20.1878C44.9325 20.1436 43.694 19.7537 42.2796 19.7537C41.3942 19.7537 40.6175 19.9092 39.9637 20.2149C39.9507 19.9888 39.9346 19.7635 39.9125 19.5386C41.0222 19.2248 42.5344 18.5924 43.3943 17.3651C44.7819 15.3837 44.1295 12.3314 44.0509 11.9899C43.8954 11.3186 43.2584 10.8729 42.5741 10.956C42.2428 10.9964 39.4289 11.3895 37.9615 13.1355C37.8612 12.9494 37.7576 12.7641 37.6499 12.5816C37.6429 12.5694 37.6351 12.5574 37.6278 12.5455C38.5006 11.7917 39.6029 10.5802 39.863 9.10547C40.2831 6.72285 38.4023 4.23285 38.1865 3.95665C37.7618 3.41373 36.9961 3.27861 36.411 3.6436C36.1281 3.82048 33.742 5.36713 33.151 7.57146C32.6228 7.17734 32.0722 6.81164 31.4998 6.48035C30.8554 6.10763 30.0311 6.32768 29.6583 6.97168C29.2856 7.61603 29.5057 8.44041 30.15 8.81312C31.8946 9.82281 33.3767 11.1771 34.5324 12.7592C34.5896 12.8414 34.6387 12.9087 34.6773 12.9607C35.8 14.5547 36.5953 16.3705 36.9971 18.2955C37.0375 18.545 37.0754 18.7195 37.0908 18.7868C37.0912 18.7879 37.0915 18.7889 37.0919 18.79C37.228 19.5793 37.2989 20.3847 37.2989 21.1993C37.2989 22.2974 37.174 23.3668 36.9385 24.3943C36.8532 24.6846 36.8065 24.8923 36.7904 24.9682C36.7883 24.9787 36.7872 24.9896 36.7851 25.0001C36.2626 26.8938 35.3592 28.631 34.1628 30.124C34.0786 30.2237 34.0112 30.3068 33.9649 30.3661C32.7236 31.8486 31.1885 33.0766 29.4492 33.9588C29.1979 34.0704 29.0301 34.1575 28.9775 34.1856C28.9726 34.188 28.9684 34.1912 28.9638 34.1936C27.1476 35.0303 25.1276 35.4981 23.0001 35.4981C20.8726 35.4981 18.8522 35.0303 17.0357 34.1933C17.0311 34.1908 17.0272 34.188 17.0227 34.1856C16.97 34.1575 16.803 34.0708 16.5517 33.9592C14.8124 33.0766 13.2766 31.8486 12.0353 30.3658C11.989 30.3068 11.9216 30.2237 11.8373 30.1243C10.6413 28.631 9.73795 26.8942 9.21503 25.0004C9.21328 24.9896 9.21223 24.979 9.20977 24.9682C9.19363 24.8923 9.14695 24.6846 9.06132 24.3943C8.82618 23.3668 8.70124 22.2974 8.70124 21.1993C8.70124 20.3851 8.77213 19.58 8.9083 18.7907C8.9083 18.7893 8.909 18.7882 8.90936 18.7868C8.9248 18.7195 8.96305 18.545 9.00306 18.2951C9.4049 16.3716 10.1991 14.5572 11.3207 12.9638C11.3604 12.9108 11.4113 12.841 11.4706 12.7557C12.6259 11.175 14.107 9.82211 15.8508 8.81312C16.4948 8.44076 16.7152 7.61638 16.3425 6.97203C15.9698 6.32768 15.1454 6.10763 14.5011 6.48035C13.9283 6.81164 13.3777 7.17769 12.8495 7.57181C12.2588 5.36713 9.87237 3.82048 9.58915 3.6436C9.00446 3.27861 8.23834 3.41373 7.81368 3.95665C7.59785 4.23285 5.71709 6.72285 6.13718 9.10582C6.39724 10.5805 7.49958 11.792 8.3724 12.5455C8.36538 12.5578 8.35766 12.5694 8.35029 12.5816C8.24255 12.7641 8.13937 12.9494 8.03899 13.1358C6.57131 11.3895 3.75738 10.9964 3.42643 10.956C2.74242 10.8725 2.10474 11.3182 1.94962 11.9903C1.87066 12.3318 1.21859 15.3837 2.60626 17.3651C3.46574 18.5924 4.97799 19.2248 6.0877 19.5389C6.06559 19.7635 6.04945 19.9892 6.03611 20.2152C5.38264 19.9095 4.60633 19.7541 3.72053 19.7541C2.30654 19.7541 1.06768 20.1436 0.931161 20.1878C0.275582 20.4012 -0.113623 21.075 0.029565 21.7492C0.102563 22.0921 0.801309 25.1335 2.89649 26.3435C3.60857 26.7545 4.49122 26.963 5.51916 26.963C5.51951 26.963 5.51951 26.963 5.51986 26.963C6.04278 26.963 6.54148 26.9096 6.96964 26.8401C7.0451 27.0539 7.12406 27.2658 7.20759 27.4754C7.20689 27.4754 7.20618 27.4754 7.20548 27.4754C4.92465 27.4754 2.8056 29.3912 2.57151 29.6095C2.06754 30.0798 1.99946 30.8547 2.41428 31.4057C2.62521 31.6854 4.54386 34.1466 6.9542 34.3575C7.06861 34.3677 7.18583 34.3726 7.30305 34.3726C7.3034 34.3726 7.30305 34.3726 7.3034 34.3726C8.67352 34.3726 9.98467 33.6816 10.8645 33.0825C11.0231 33.2447 11.1846 33.4036 11.3495 33.5591C9.2768 34.5207 8.16499 37.1451 8.0397 37.455C7.7814 38.0945 8.04777 38.8255 8.65632 39.1494C8.8518 39.2533 10.6185 40.1647 12.4561 40.1647C12.4561 40.1647 12.4561 40.1647 12.4564 40.1647C13.0211 40.1647 13.5468 40.0777 14.0185 39.9061C15.4265 39.3937 16.4285 38.0966 17.0188 37.1055C17.5031 37.2883 17.9976 37.4494 18.5016 37.5877C17.7172 38.3854 16.9988 39.4007 16.3685 40.6185C16.0263 41.2794 16.285 42.0925 16.9462 42.4347C17.607 42.7769 18.4202 42.5186 18.7623 41.8574C19.9675 39.5288 21.512 38.1934 23.0004 38.1934C24.4885 38.1934 26.0334 39.5288 27.2382 41.8574C27.4779 42.3203 27.9485 42.5856 28.4363 42.5856C28.6448 42.5856 28.8568 42.5372 29.0547 42.4347C29.7156 42.0925 29.9742 41.2794 29.632 40.6182C29.0017 39.4004 28.2833 38.3851 27.4989 37.5877C28.0029 37.4494 28.4974 37.2883 28.9814 37.1055C29.572 38.0962 30.574 39.3937 31.9824 39.9061C32.4537 40.0777 32.9794 40.1647 33.5444 40.1647C35.382 40.1647 37.1484 39.2533 37.3438 39.1491C37.9527 38.8255 38.2188 38.0945 37.9605 37.455C37.8355 37.1451 36.7237 34.5204 34.651 33.5591C34.8159 33.4033 34.9774 33.2443 35.136 33.0825C36.0158 33.6816 37.327 34.3726 38.6971 34.3726C38.8143 34.3726 38.9319 34.3677 39.0463 34.3575C41.4567 34.1466 43.3753 31.6854 43.5859 31.4057C44.0007 30.8547 43.933 30.0798 43.4287 29.6095C43.1949 29.3912 41.0755 27.4754 38.7947 27.4754C38.794 27.4754 38.7933 27.4754 38.7926 27.4754C38.8765 27.2658 38.9554 27.0539 39.0305 26.8401C39.4587 26.9096 39.9577 26.963 40.481 26.963C41.5093 26.963 42.3916 26.7545 43.104 26.3435C45.1989 25.1335 45.898 22.0925 45.9706 21.7496C46.1138 21.0747 45.7249 20.4012 45.069 20.1878Z" fill="#395781"/>
</g>
<defs>
<clipPath id="clip0">
<rect width="46" height="46" fill="white" transform="matrix(1 0 0 -1 0 46)"/>
</clipPath>
</defs>
</svg>
